img/co2.svg

<svg width="48" height="48" viewBox="0 0 48 48" fill="none" xmlns="http://www.w3.org/2000/svg">
<g clip-path="url(#clip0)">
<path d="M46.967 25.747C50.602 12.625 44.314 0 33.295 0C27.198 0 24.595 3.504 17.898 11.663C11.2 19.822 1.65 8.478 0 25.747C1.386 41.66 18.652 56.064 26.668 42.774C33.966 30.674 43.333 38.868 46.968 25.747H46.967Z" fill="#E2F9C3"/>
<path fill-rule="evenodd" clip-rule="evenodd" d="M34 15C34 15.2652 33.8946 15.5196 33.7071 15.7071C33.5196 15.8946 33.2652 16 33 16C32.7348 16 32.4804 15.8946 32.2929 15.7071C32.1054 15.5196 32 15.2652 32 15C32 14.7348 32.1054 14.4804 32.2929 14.2929C32.4804 14.1054 32.7348 14 33 14C33.2652 14 33.5196 14.1054 33.7071 14.2929C33.8946 14.4804 34 14.7348 34 15ZM35 15C35 15.5304 34.7893 16.0391 34.4142 16.4142C34.0391 16.7893 33.5304 17 33 17C32.4696 17 31.9609 16.7893 31.5858 16.4142C31.2107 16.0391 31 15.5304 31 15C31 14.4696 31.2107 13.9609 31.5858 13.5858C31.9609 13.2107 32.4696 13 33 13C33.5304 13 34.0391 13.2107 34.4142 13.5858C34.7893 13.9609 35 14.4696 35 15ZM15 19.5C15.3978 19.5 15.7794 19.342 16.0607 19.0607C16.342 18.7794 16.5 18.3978 16.5 18C16.5 17.6022 16.342 17.2206 16.0607 16.9393C15.7794 16.658 15.3978 16.5 15 16.5C14.6022 16.5 14.2206 16.658 13.9393 16.9393C13.658 17.2206 13.5 17.6022 13.5 18C13.5 18.3978 13.658 18.7794 13.9393 19.0607C14.2206 19.342 14.6022 19.5 15 19.5ZM15 21C15.7956 21 16.5587 20.6839 17.1213 20.1213C17.6839 19.5587 18 18.7956 18 18C18 17.2044 17.6839 16.4413 17.1213 15.8787C16.5587 15.3161 15.7956 15 15 15C14.2044 15 13.4413 15.3161 12.8787 15.8787C12.3161 16.4413 12 17.2044 12 18C12 18.7956 12.3161 19.5587 12.8787 20.1213C13.4413 20.6839 14.2044 21 15 21ZM26.5 18C24.319 18 22.94 18.77 22.103 19.707C21.807 20.037 21.593 20.374 21.436 20.677C20.527 20.411 19.226 20.314 17.946 21.167C16.391 22.204 15.759 23.634 15.568 24.772C14.857 25.014 14.2017 25.3962 13.641 25.896C12.723 26.722 12 27.97 12 29.691C12 31.699 12.827 33.094 14.08 33.944C15.271 34.753 16.746 35 18 35H30.5C31.64 35 32.982 34.576 34.054 33.736C35.153 32.875 36 31.546 36 29.779C36 28.115 35.402 26.789 34.433 25.882C33.8168 25.3103 33.0635 24.9074 32.246 24.712C32.4 23.452 32.095 22.065 31.433 20.906C30.516 19.303 28.838 18 26.5 18ZM22.959 22.284L22.977 22.22C23.042 21.986 23.177 21.507 23.594 21.04C24.022 20.56 24.842 20 26.5 20C28 20 29.072 20.807 29.696 21.899C30.346 23.035 30.432 24.345 30.08 25.17L29.486 26.562H31C31.774 26.562 32.522 26.832 33.067 27.342C33.597 27.839 34 28.62 34 29.779C34 30.837 33.514 31.619 32.82 32.161C32.101 32.725 31.193 33 30.5 33H18C16.961 33 15.937 32.787 15.202 32.289C14.528 31.83 14 31.072 14 29.69C14 28.59 14.44 27.867 14.979 27.382C15.546 26.871 16.238 26.617 16.661 26.549L17.5 26.412V25.562C17.5 24.874 17.794 23.672 19.055 22.832C20.045 22.171 21.142 22.642 21.469 22.846L22.585 23.546L22.959 22.284ZM18.72 27.64C18.72 25.91 19.647 24.844 21.15 24.844C22.378 24.844 23.317 25.682 23.396 26.84H22.342C22.238 26.229 21.768 25.826 21.15 25.826C20.336 25.826 19.83 26.52 19.83 27.641C19.83 28.763 20.336 29.459 21.154 29.459C21.774 29.459 22.241 29.084 22.345 28.498H23.4C23.31 29.648 22.4 30.44 21.15 30.44C19.65 30.44 18.72 29.374 18.72 27.64ZM24 27.64C24 25.913 24.938 24.844 26.404 24.844C27.877 24.844 28.8 25.917 28.8 27.64C28.8 29.366 27.88 30.44 26.404 30.44C24.924 30.44 24 29.366 24 27.64ZM27.735 27.64C27.735 26.526 27.217 25.822 26.404 25.822C25.594 25.822 25.069 26.526 25.069 27.64C25.069 28.75 25.584 29.462 26.404 29.462C27.217 29.462 27.735 28.751 27.735 27.64ZM29.28 29.296C29.28 28.638 29.756 28.205 30.48 28.205C31.181 28.205 31.631 28.583 31.631 29.169C31.631 29.572 31.426 29.899 30.863 30.339L30.496 30.669V30.731H31.68V31.457H29.341V30.813L30.233 29.998C30.69 29.592 30.799 29.449 30.799 29.255C30.799 29.057 30.651 28.921 30.442 28.921C30.22 28.921 30.069 29.071 30.069 29.291V29.312H29.28V29.296Z" fill="#3A8241"/>
</g>
<defs>
<clipPath id="clip0">
<rect width="48" height="48" fill="white"/>
</clipPath>
</defs>
</svg>

<svg width="48" height="48" fill="none" xmlns="http://www.w3.org/2000/svg"><g clip-path="url(#clip0)"><path d="M46.967 25.747C50.602 12.625 44.314 0 33.295 0c-6.097 0-8.7 3.504-15.397 11.663C11.2 19.822 1.65 8.478 0 25.747 1.386 41.66 18.652 56.064 26.668 42.774c7.298-12.1 16.665-3.906 20.3-17.027h-.001z" fill="#E2F9C3"/><path fill-rule="evenodd" clip-rule="evenodd" d="M34 15a1 1 0 11-2 0 1 1 0 012 0zm1 0a2 2 0 11-4 0 2 2 0 014 0zm-20 4.5a1.5 1.5 0 100-3 1.5 1.5 0 000 3zm0 1.5a3 3 0 100-6 3 3 0 000 6zm11.5-3c-2.181 0-3.56.77-4.397 1.707-.296.33-.51.667-.667.97-.909-.266-2.21-.363-3.49.49-1.555 1.037-2.187 2.467-2.378 3.605a5.615 5.615 0 00-1.927 1.124C12.723 26.722 12 27.97 12 29.691c0 2.008.827 3.403 2.08 4.253C15.271 34.753 16.746 35 18 35h12.5c1.14 0 2.482-.424 3.554-1.264 1.099-.861 1.946-2.19 1.946-3.957 0-1.664-.598-2.99-1.567-3.897a4.885 4.885 0 00-2.187-1.17c.154-1.26-.151-2.647-.813-3.806C30.516 19.303 28.838 18 26.5 18zm-3.541 4.284l.018-.064c.065-.234.2-.713.617-1.18.428-.48 1.248-1.04 2.906-1.04 1.5 0 2.572.807 3.196 1.899.65 1.136.736 2.446.384 3.271l-.594 1.392H31c.774 0 1.522.27 2.067.78.53.497.933 1.278.933 2.437 0 1.058-.486 1.84-1.18 2.382-.719.564-1.627.839-2.32.839H18c-1.039 0-2.063-.213-2.798-.711C14.528 31.83 14 31.072 14 29.69c0-1.1.44-1.823.979-2.308.567-.511 1.259-.765 1.682-.833l.839-.137v-.85c0-.688.294-1.89 1.555-2.73.99-.661 2.087-.19 2.414.014l1.116.7.374-1.262zM18.72 27.64c0-1.73.927-2.796 2.43-2.796 1.228 0 2.167.838 2.246 1.996h-1.054c-.104-.611-.574-1.014-1.192-1.014-.814 0-1.32.694-1.32 1.815 0 1.122.506 1.818 1.324 1.818.62 0 1.087-.375 1.191-.961H23.4c-.09 1.15-1 1.942-2.25 1.942-1.5 0-2.43-1.066-2.43-2.8zm5.28 0c0-1.727.938-2.796 2.404-2.796 1.473 0 2.396 1.073 2.396 2.796 0 1.726-.92 2.8-2.396 2.8-1.48 0-2.404-1.074-2.404-2.8zm3.735 0c0-1.114-.518-1.818-1.331-1.818-.81 0-1.335.704-1.335 1.818 0 1.11.515 1.822 1.335 1.822.813 0 1.331-.711 1.331-1.822zm1.545 1.656c0-.658.476-1.091 1.2-1.091.701 0 1.151.378 1.151.964 0 .403-.205.73-.768 1.17l-.367.33v.062h1.184v.726h-2.339v-.644l.892-.815c.457-.406.566-.549.566-.743 0-.198-.148-.334-.357-.334-.222 0-.373.15-.373.37v.021h-.789v-.016z" fill="#3A8241"/></g><defs><clipPath id="clip0"><path fill="#fff" d="M0 0h48v48H0z"/></clipPath></defs></svg>
